X:1
T:Title
%%score ( 1 2 ) ( 3 4 )
L:1/8
Q:1/4=90
M:9/8
K:G
V:1 treble nm="Strings 1, Treble"
V:2 treble 
V:3 bass nm="Strings 1, Bass"
V:4 bass 
V:1
 z3 z3 [B,D][CE][B,D] | [DB]3 [DG]3 EF[CG] | [B,D]3 [B,G]3 DF[DA] | [Fc]3 [FA]3 [Fd]2 [Fc] | %4
w: 1.~I~ * will~|trust~ Thee,~ O~ * my~|Fa ther,~ For~ * Thy~|love~ shall~ nev er~|
 [GB]6 [GB]2 [GB] | [GB]3 [FA]3 [Fc]2 [DF] | [DA]3 [DG]3 [GB]2 [GB] | [Gd]3 [GB]3 AB[G^c] | %8
w: fail;~ In~ Thy~|arms~ I~ rest~ for|ev er,~ Safe~ with|in~ the~ sec * ond~|
 [Fd]6 de[Gd] | [GB]3 [DG]3 D-[DA][GB] | [FA]3 [Fc]3 cB[Fc] | [FA]3 [DF]3 D-[DG][FA] | %12
w: veil.~ Thee~ * I~|trust~ for~ eve * ry~|bless ing,~ All~ * I~|need~ is~ in~ * Thy~|
 G3 .B3 [B,D]2 [B,D] | [B,G]3 [DA]3 [GB]2 [Gd] | [Ge]3 [Gd]3 cB[EA] | [DG]2 [DG] [CF]3 [CA]3 | %16
w: will;~ * On~ Thy~|prom ise~ calm ly~|rest ing,~ Thou~ * dost~|eve ry~ want~ ful|
 [B,G]6 z3 |] %17
w: fill.~|
V:2
 x9 | z3 z3 .C3 | x9 | x9 | x9 | x9 | x9 | z3 z3 .E3 | z3 z3 .G3 | z3 z3 .G3 | z3 z3 .F3 | %11
 z3 z3 .F3 | x9 | x9 | z3 z3 .G3 | x9 | x9 |] %17
V:3
 z3 z3 [G,,G,]2 [G,,G,] | [G,,G,]3 [B,,G,]3 [C,G,]2 [E,G,] | G,3 G,3 [D,F,]2 [D,F,] | %3
 [D,A,]3 [D,A,]3 [D,A,]2 [D,D] | [G,D]6 [G,D]2 [G,D] | [D,D]3 [D,D]3 [D,A,]2 [D,A,] | %6
 [D,C]3 [G,B,]3 [G,D]2 [G,D] | [G,B,]3 [G,D]3 [A,^C]2 [A,E] | z3 z3 .B,3 | D3 z3 .B,3 | %10
 z3 z3 .A,3 | z3 z3 .A,3 | B,3 z3 z3 | G,3 [D,F,]3 G,2 [G,B,] | [C,C]3 [G,B,]3 ED[C,C] | %15
 [D,B,]2 [D,B,] [D,A,]3 [D,F,]3 | [G,,D,G,]6 z3 |] %17
V:4
 x9 | x9 | x9 | x9 | x9 | x9 | x9 | x9 | [D,D]6 G,-[G,C][G,B,] | G,3- [G,B,]3 G,-[G,C][G,D] | %10
 [D,D]3 [D,D]3 D,-[D,^G,][D,A,] | [D,C]3 [D,A,]3 D,-[D,B,][D,C] | G,3- [G,D]3 G,2 G, | x9 | %14
 z3 z3 .C,3 | x9 | x9 |] %17

